icons/Desktop_filled.svg

<svg width="24" height="24" viewBox="0 0 24 24" fill="none" xmlns="http://www.w3.org/2000/svg">
<path fill-rule="evenodd" clip-rule="evenodd" d="M2.75,6.25c0,-1.51878 1.23122,-2.75 2.75,-2.75h13c1.5188,0 2.75,1.23122 2.75,2.75v8c0,1.5188 -1.2312,2.75 -2.75,2.75h-3l0.9,1.2c0.8652,1.1537 0.0421,2.8 -1.4,2.8h-6c-1.44208,0 -2.26525,-1.6463 -1.4,-2.8l0.9,-1.2h-3c-1.51878,0 -2.75,-1.2312 -2.75,-2.75zM10.375,17l-1.575,2.1c-0.12361,0.1648 -0.00601,0.4 0.2,0.4h6c0.206,0 0.3236,-0.2352 0.2,-0.4l-1.575,-2.1z" fill="#002B51"/>
</svg>

<svg width="24" height="24" viewBox="0 0 24 24" fill="none" xmlns="http://www.w3.org/2000/svg">
<path fill-rule="evenodd" clip-rule="evenodd" d="M2.75 6.25C2.75 4.73122 3.98122 3.5 5.5 3.5H18.5C20.0188 3.5 21.25 4.73122 21.25 6.25V14.25C21.25 15.7688 20.0188 17 18.5 17H15.5L16.4 18.2C17.2652 19.3537 16.4421 21 15 21H9C7.55792 21 6.73475 19.3537 7.6 18.2L8.5 17H5.5C3.98122 17 2.75 15.7688 2.75 14.25V6.25ZM10.375 17L8.8 19.1C8.67639 19.2648 8.79399 19.5 9 19.5H15C15.206 19.5 15.3236 19.2648 15.2 19.1L13.625 17H10.375Z" fill="#002B51"/>
</svg>
